theme/black/state-pause.svg

<svg width="16" height="16" version="1.1" viewBox="0 0 4.2333 4.2333" xmlns="http://www.w3.org/2000/svg"><path transform="scale(.26458)" d="m8 1a7 7 0 0 0-7 7 7 7 0 0 0 7 7 7 7 0 0 0 7-7 7 7 0 0 0-7-7zm0 1a6 6 0 0 1 6 6 6 6 0 0 1-6 6 6 6 0 0 1-6-6 6 6 0 0 1 6-6zm-1.5117 2.2598a0.75007 0.75007 0 0 0-0.73828 0.76758v5.9727a0.75007 0.75007 0 1 0 1.5 0v-5.9727a0.75007 0.75007 0 0 0-0.76172-0.76758zm2.998 0a0.75007 0.75007 0 0 0-0.73828 0.76758v5.9727a0.75296 0.75296 0 0 0 1.5059 0v-5.9727a0.75007 0.75007 0 0 0-0.76758-0.76758z" stroke-width=".82894"/></svg>

<?xml version="1.0" encoding="UTF-8" standalone="no"?>
<!DOCTYPE svg PUBLIC "-//W3C//DTD SVG 1.1//EN" "http://www.w3.org/Graphics/SVG/1.1/DTD/svg11.dtd">
<svg width="100%" height="100%" viewBox="0 0 16 16"
    xmlns="http://www.w3.org/2000/svg" version="1.1">
    <path d="M8,1C4.16,1 1,4.16 1,8C1,11.84 4.16,15 8,15C11.84,15 15,11.84 15,8C15,4.16 11.84,1 8,1ZM8,2C11.291,2 14,4.708 14,8C14,11.291 11.291,14 8,14C4.708,14 2,11.291 2,8C2,4.708 4.708,2 8,2ZM6.488,4.26C6.081,4.266 5.75,4.603 5.75,5.01C5.75,5.016 5.75,5.021 5.75,5.027L5.75,11C5.75,11.003 5.75,11.007 5.75,11.01C5.75,11.422 6.089,11.76 6.5,11.76C6.911,11.76 7.25,11.422 7.25,11.01C7.25,11.007 7.25,11.003 7.25,11L7.25,5.027C7.25,5.021 7.25,5.016 7.25,5.01C7.25,4.598 6.912,4.26 6.5,4.26C6.496,4.26 6.492,4.26 6.488,4.26ZM9.486,4.26C9.079,4.266 8.748,4.603 8.748,5.01C8.748,5.016 8.748,5.021 8.748,5.027L8.748,11C8.75,11.412 9.089,11.749 9.501,11.749C9.913,11.749 10.252,11.412 10.254,11L10.254,5.027C10.254,5.021 10.254,5.016 10.254,5.01C10.254,4.598 9.915,4.26 9.504,4.26C9.498,4.26 9.492,4.26 9.486,4.26L9.486,4.26Z" style="fill-rule:nonzero;"/>
</svg>
